img/section6-background.svg

<svg fill="none" height="1117" viewBox="0 0 1728 1117" width="1728" xmlns="http://www.w3.org/2000/svg" xmlns:xlink="http://www.w3.org/1999/xlink"><linearGradient id="a" gradientUnits="userSpaceOnUse" x1="977.162" x2="1828.24" y1="-49.1851" y2="1038.3"><stop offset="0" stop-color="#ff681d"/><stop offset=".22" stop-color="#ff8034"/><stop offset=".44" stop-color="#32a0c5"/><stop offset=".74" stop-color="#0085c4"/><stop offset="1" stop-color="#0072b2"/></linearGradient><path d="m0 0h1728v1117h-1728z" fill="#fff"/><path d="m0 0h1728v1117h-1728z" fill="#ff681d" fill-opacity=".04"/><path d="m1394.06 0c-14.64 50.4122-35.92 100.266-20.52 152.783 17.29 59.112 55.58 111.24 83.2 165.723 13.47 26.548 43.67 87.116-2.41 102.121-9.56 3.103-20.32 1.427-29.1-3.452-31.77-17.599-26.94-58.623-39.31-87.944-16.81-39.907-47.01-75.264-81.25-101.274-24.63-18.696-53.16-32.603-75.1-54.712-21.58-21.739-34.24-50.592-43.58-79.3444-9.92-30.4728-16.34-61.9758-19.13-93.9006h-252.541c-16.222 167.549 109.891 252.221 234.201 326.088s138.73 163.688 104.5 268.443c-38.33 117.316-194.55 178.363-207.19 295.469-12.64 117.11 180.16 227 180.16 227h501.71v-1117z" fill="url(#a)"/></svg>

<svg width="1728" height="1117" viewBox="0 0 1728 1117" fill="none" xmlns="http://www.w3.org/2000/svg">
<rect width="1728" height="1117" fill="white"/>
<rect width="1728" height="1117" fill="#FF681D" fill-opacity="0.04"/>
<path d="M1394.06 0C1379.42 50.4122 1358.14 100.266 1373.54 152.783C1390.83 211.895 1429.12 264.023 1456.74 318.506C1470.21 345.054 1500.41 405.622 1454.33 420.627C1444.77 423.73 1434.01 422.054 1425.23 417.175C1393.46 399.576 1398.29 358.552 1385.92 329.231C1369.11 289.324 1338.91 253.967 1304.67 227.957C1280.04 209.261 1251.51 195.354 1229.57 173.245C1207.99 151.506 1195.33 122.653 1185.99 93.9006C1176.07 63.4278 1169.65 31.9248 1166.86 0L914.319 0C898.097 167.549 1024.21 252.221 1148.52 326.088C1272.83 399.955 1287.25 489.776 1253.02 594.531C1214.69 711.847 1058.47 772.894 1045.83 890C1033.19 1007.11 1225.99 1117 1225.99 1117H1727.7V0H1394.06Z" fill="url(#paint0_linear_363_8058)"/>
<defs>
<linearGradient id="paint0_linear_363_8058" x1="977.162" y1="-49.1851" x2="1828.24" y2="1038.3" gradientUnits="userSpaceOnUse">
<stop stop-color="#FF681D"/>
<stop offset="0.22" stop-color="#FF8034"/>
<stop offset="0.44" stop-color="#32A0C5"/>
<stop offset="0.74" stop-color="#0085C4"/>
<stop offset="1" stop-color="#0072B2"/>
</linearGradient>
</defs>
</svg>
